Yaru++/actions/16/distribute-horizontal-left.svg

<svg viewBox="0 0 24 24" xmlns="http://www.w3.org/2000/svg"><path d="m8 4-3 2 3 2zm2 0v4l3-2zm-6 3v3 6 4h1v-4h6v-7h-6v-2zm9 0v3 8 2h1v-2h6v-9h-6v-2zm-8 3h5v5h-5zm9 0h5v7h-5z" fill="#808080"/></svg>

<svg xmlns="http://www.w3.org/2000/svg" viewBox="0 0 24 24">
 <defs>
  <style id="current-color-scheme" type="text/css">
   .ColorScheme-Text { color:#808080; }
  </style>
 </defs>
 <path style="fill:currentColor" class="ColorScheme-Text" d="M 8 4 L 5 6 L 8 8 L 8 4 z M 10 4 L 10 8 L 13 6 L 10 4 z M 4 7 L 4 10 L 4 16 L 4 20 L 5 20 L 5 16 L 11 16 L 11 9 L 5 9 L 5 7 L 4 7 z M 13 7 L 13 10 L 13 18 L 13 20 L 14 20 L 14 18 L 20 18 L 20 9 L 14 9 L 14 7 L 13 7 z M 5 10 L 10 10 L 10 15 L 5 15 L 5 10 z M 14 10 L 19 10 L 19 17 L 14 17 L 14 10 z"/>
</svg>
